src/img/scooter.svg

<svg width="40" height="40" viewBox="0 0 40 40" fill="none" xmlns="http://www.w3.org/2000/svg">
<path fill-rule="evenodd" clip-rule="evenodd" d="M36.1713 18H38C38.3682 18 38.6667 17.7015 38.6667 17.3333V12C38.6667 11.6318 38.3682 11.3333 38 11.3333H31.7453L30.6667 9.176V6.66667C30.6667 6.29848 30.3682 6 30 6H26C25.6318 6 25.3333 6.29848 25.3333 6.66667V9.33333C25.3333 9.70152 25.6318 10 26 10H29.588L30.6667 12.1573V16C30.6667 14.8954 29.7712 14 28.6667 14C27.5621 14 26.6667 14.8954 26.6667 16V14.6667C26.6667 14.2985 26.3682 14 26 14H20.7487L18.6667 13.4793V2.66667C18.6667 1.19391 17.4728 0 16 0H13.3333C11.8606 0 10.6667 1.19391 10.6667 2.66667V10H7.33333C6.22876 10 5.33333 10.8954 5.33333 12V14H0.666667C0.397069 14.0001 0.154044 14.1625 0.0508813 14.4116C-0.0522813 14.6606 0.00472805 14.9473 0.195333 15.138L1.724 16.6667L0.195333 18.1953C0.00472805 18.386 -0.0522813 18.6727 0.0508813 18.9218C0.154044 19.1708 0.397069 19.3333 0.666667 19.3333H7.33333C8.4379 19.3333 9.33333 18.4379 9.33333 17.3333V15.3333H10.6667V22H8.66667C6.34895 22.0027 4.38444 23.706 4.05333 26H2C1.63181 26 1.33333 26.2985 1.33333 26.6667V29.3333C1.33333 29.7015 1.63181 30 2 30H4V31.3333H0.666667C0.298477 31.3333 0 31.6318 0 32V34.6667C0 35.0349 0.298477 35.3333 0.666667 35.3333H8C8 37.9107 10.0893 40 12.6667 40C15.244 40 17.3333 37.9107 17.3333 35.3333H29.3333C29.3333 37.9107 31.4227 40 34 40C36.5773 40 38.6667 37.9107 38.6667 35.3333H39.3333C39.5366 35.3335 39.7288 35.2409 39.8554 35.0818C39.982 34.9228 40.0291 34.7147 39.9833 34.5167L36.1713 18ZM26.6667 16C26.6667 17.1046 27.5621 18 28.6667 18C29.7712 18 30.6667 17.1046 30.6667 16V30H28.6667V29.3333C28.6667 28.2288 27.7712 27.3333 26.6667 27.3333V20C26.6667 19.6318 26.3682 19.3333 26 19.3333H18.6667V17.5207L20.5047 17.98C20.5576 17.9933 20.6121 18 20.6667 18H26C26.3682 18 26.6667 17.7015 26.6667 17.3333V16ZM29.3333 8.66667H26.6667V7.33333H29.3333V8.66667ZM4 34V32.6667H1.33333V34H4ZM4 28.6667H2.66667V27.3333H4V28.6667ZM37.3333 12.6667H36V16.6667H37.3333V12.6667ZM32 12.6667H34.6667V16.6667H32V12.6667ZM27.3333 29.3333C27.3333 28.9651 27.0349 28.6667 26.6667 28.6667H24V30H27.3333V29.3333ZM20.5047 15.3133C20.5576 15.3266 20.6121 15.3333 20.6667 15.3333H25.3333V16.6667H20.7487L16 15.4793V14.1873L20.5047 15.3133ZM13.3333 1.33333C12.597 1.33333 12 1.93029 12 2.66667V5.33333H14V4C14 3.63181 14.2985 3.33333 14.6667 3.33333H17.3333V2.66667C17.3333 1.93029 16.7364 1.33333 16 1.33333H13.3333ZM12 6.66667H14.6667C15.0349 6.66667 15.3333 6.36819 15.3333 6V4.66667H17.3333V6.17067L12 7.77067V6.66667ZM17.3333 10.6667V7.56267L12 9.16267V10.6667H17.3333ZM17.3333 12V13.146L15.4953 12.6867C15.2961 12.6368 15.0851 12.6814 14.9232 12.8078C14.7613 12.9341 14.6667 13.128 14.6667 13.3333V16C14.6667 16.3058 14.8747 16.5724 15.1713 16.6467L17.3333 17.1873V19.3333H12V12H17.3333ZM25.3333 27.3333V20.6667H12V22H23.3333C23.7015 22 24 22.2985 24 22.6667V27.3333H25.3333ZM8 17.3333C8 17.7015 7.70152 18 7.33333 18H2.276L3.138 17.138C3.39825 16.8777 3.39825 16.4557 3.138 16.1953L2.276 15.3333H8V17.3333ZM6.66667 12V14H10.6667V11.3333H7.33333C6.96514 11.3333 6.66667 11.6318 6.66667 12ZM12.6667 38.6667C10.8266 38.6645 9.33554 37.1734 9.33333 35.3333H10.6667C10.6667 36.4379 11.5621 37.3333 12.6667 37.3333C13.7712 37.3333 14.6667 36.4379 14.6667 35.3333H16C15.9978 37.1734 14.5067 38.6645 12.6667 38.6667ZM12.6667 36C13.0349 36 13.3333 35.7015 13.3333 35.3333H12C12 35.7015 12.2985 36 12.6667 36ZM17.3333 34H8V27.3333C8 26.9651 8.29848 26.6667 8.66667 26.6667H16.6667C17.0349 26.6667 17.3333 26.9651 17.3333 27.3333V34ZM18.6667 34H20V26.6667C19.9978 24.8266 18.5067 23.3355 16.6667 23.3333H8.66667C6.82663 23.3355 5.33554 24.8266 5.33333 26.6667V34H6.66667V27.3333C6.66667 26.2288 7.5621 25.3333 8.66667 25.3333H16.6667C17.7712 25.3333 18.6667 26.2288 18.6667 27.3333V34ZM19.9267 23.3333H22.6667V30H21.3333V26.6667C21.3335 25.4113 20.8262 24.2091 19.9267 23.3333ZM34 38.6667C32.16 38.6645 30.6689 37.1734 30.6667 35.3333H32C32 36.4379 32.8954 37.3333 34 37.3333C35.1046 37.3333 36 36.4379 36 35.3333H37.3333C37.3311 37.1734 35.84 38.6645 34 38.6667ZM34 36C34.3682 36 34.6667 35.7015 34.6667 35.3333H33.3333C33.3333 35.7015 33.6318 36 34 36ZM32 34V29.3333H33.3333V28H32V18H34.8L38.492 34H32ZM21.3333 34H30.6667V31.3333H21.3333V34ZM36 28H34.6667V29.3333H36V28ZM9.33333 28H10.6667V29.3333H9.33333V28ZM13.3333 28H12V29.3333H13.3333V28ZM14.6667 28H16V29.3333H14.6667V28ZM28.6667 15.3333C29.0349 15.3333 29.3333 15.6318 29.3333 16C29.3333 16.3682 29.0349 16.6667 28.6667 16.6667C28.2985 16.6667 28 16.3682 28 16C28 15.6318 28.2985 15.3333 28.6667 15.3333ZM0 4.66667H8.66667V6H0V4.66667ZM9.33333 7.33333H1.33333V8.66667H9.33333V7.33333Z" fill="#495567"/>
</svg>

<svg width="40" height="40" fill="none" xmlns="http://www.w3.org/2000/svg"><path fill-rule="evenodd" clip-rule="evenodd" d="M36.171 18H38a.667.667 0 00.667-.667V12a.667.667 0 00-.667-.667h-6.255l-1.078-2.157v-2.51A.667.667 0 0030 6h-4a.667.667 0 00-.667.667v2.666c0 .369.299.667.667.667h3.588l1.079 2.157V16a2 2 0 00-4 0v-1.333A.667.667 0 0026 14h-5.251l-2.082-.52V2.666A2.667 2.667 0 0016 0h-2.667a2.667 2.667 0 00-2.666 2.667V10H7.333a2 2 0 00-2 2v2H.667a.667.667 0 00-.472 1.138l1.529 1.529-1.529 1.528a.667.667 0 00.472 1.138h6.666a2 2 0 002-2v-2h1.334V22h-2a4.667 4.667 0 00-4.614 4H2a.667.667 0 00-.667.667v2.666c0 .369.299.667.667.667h2v1.333H.667A.667.667 0 000 32v2.667c0 .368.298.666.667.666H8a4.667 4.667 0 109.333 0h12a4.667 4.667 0 109.334 0h.666a.666.666 0 00.65-.816L36.171 18zm-9.504-2a2 2 0 104 0v14h-2v-.667a2 2 0 00-2-2V20a.667.667 0 00-.667-.667h-7.333v-1.812l1.838.459c.053.013.107.02.162.02H26a.667.667 0 00.667-.667V16zm2.666-7.333h-2.666V7.333h2.666v1.334zM4 34v-1.333H1.333V34H4zm0-5.333H2.667v-1.334H4v1.334zm33.333-16H36v4h1.333v-4zm-5.333 0h2.667v4H32v-4zm-4.667 16.666a.667.667 0 00-.666-.666H24V30h3.333v-.667zm-6.828-14.02a.63.63 0 00.162.02h4.666v1.334H20.75L16 15.479v-1.292l4.505 1.126zm-7.172-13.98c-.736 0-1.333.597-1.333 1.334v2.666h2V4c0-.368.299-.667.667-.667h2.666v-.666c0-.737-.597-1.334-1.333-1.334h-2.667zM12 6.667h2.667A.667.667 0 0015.333 6V4.667h2V6.17L12 7.77V6.667zm5.333 4V7.563L12 9.163v1.504h5.333zm0 1.333v1.146l-1.838-.46a.666.666 0 00-.828.647V16c0 .306.208.572.504.647l2.162.54v2.146H12V12h5.333zm8 15.333v-6.666H12V22h11.333c.369 0 .667.299.667.667v4.666h1.333zM8 17.333a.667.667 0 01-.667.667H2.276l.862-.862a.667.667 0 000-.943l-.862-.862H8v2zM6.667 12v2h4v-2.667H7.333a.667.667 0 00-.666.667zm6 26.667a3.337 3.337 0 01-3.334-3.334h1.334a2 2 0 104 0H16a3.337 3.337 0 01-3.333 3.334zm0-2.667a.667.667 0 00.666-.667H12c0 .369.299.667.667.667zm4.666-2H8v-6.667c0-.368.298-.666.667-.666h8c.368 0 .666.298.666.666V34zm1.334 0H20v-7.333a3.337 3.337 0 00-3.333-3.334h-8a3.337 3.337 0 00-3.334 3.334V34h1.334v-6.667a2 2 0 012-2h8a2 2 0 012 2V34zm1.26-10.667h2.74V30h-1.334v-3.333a4.651 4.651 0 00-1.406-3.334zM34 38.667a3.337 3.337 0 01-3.333-3.334H32a2 2 0 104 0h1.333A3.337 3.337 0 0134 38.667zM34 36a.667.667 0 00.667-.667h-1.334c0 .369.299.667.667.667zm-2-2v-4.667h1.333V28H32V18h2.8l3.692 16H32zm-10.667 0h9.334v-2.667h-9.334V34zM36 28h-1.333v1.333H36V28zM9.333 28h1.334v1.333H9.333V28zm4 0H12v1.333h1.333V28zm1.334 0H16v1.333h-1.333V28zm14-12.667a.667.667 0 110 1.334.667.667 0 010-1.334zM0 4.667h8.667V6H0V4.667zm9.333 2.666h-8v1.334h8V7.333z" fill="#495567"/></svg>
